svg/file-sheet.svg

<svg id="Layer_1" xmlns="http://www.w3.org/2000/svg" viewBox="0 0 80 80"><style>.st0{fill:#231f20}</style><path d="M13.5,16.5v47h53v-47H13.5z M28.5,58.5h-10v-9h10V58.5z M28.5,44.5h-10v-9h10V44.5z M61.5,58.5h-28v-9h28V58.5 z M61.5,44.5h-28v-9h28V44.5z M61.5,30.5h-43v-9h43V30.5z" id="Production_37_"/></svg>

<svg id="Layer_1" xmlns="http://www.w3.org/2000/svg" viewBox="0 0 80 80"><path d="M13.5 16.5v47h53v-47h-53zm15 42h-10v-9h10v9zm0-14h-10v-9h10v9zm33 14h-28v-9h28v9zm0-14h-28v-9h28v9zm0-14h-43v-9h43v9z" id="Production_37_"/></svg>
